X: 17
M: 2/2
L: 1/4
K: G
|:\
d2 dd | B>c dd |\
ed cB | A3 B |\
|: G | FD FG |
ED E>D | D3 :|\
|: d |\

